X:62
T:The Foxhunter Hornpipe (18C English)
S:Northern Lass - Jamie Knowles
M:3/2
L:1/8
Q:220
K:D
|: F3 D F3 D G3 E | F3 D F3 D E3 C |  F3 D F3 D G3 E | A3 A, A,3 F E3 D:|!
|: d3 D d3 D d3 D | dAdA dAdA dAdA | dcBA BAGF GFED | d3 D D3 F E3 D :|!
|: B3 D B3 D B3 D | A3 E E3 G F3 D | BABc BcdB AFED | d3 D D3 F E3 D:|!
|: f3 A f3 A f3 A | e3 B B3 d c3 A | agfe dcBA GFED | d3 D D3 F E3 D:|!
